svg/white/atom.svg

<?xml version="1.0" encoding="UTF-8"?>
<svg width="32px" height="32px" viewBox="0 0 32 32" version="1.1" xmlns="http://www.w3.org/2000/svg" xmlns:xlink="http://www.w3.org/1999/xlink">
    <!-- Generator: Sketch 53 (72520) - https://sketchapp.com -->
    <title>svg/white/atom</title>
    <desc>Created with Sketch.</desc>
    <g id="white/atom" stroke="none" stroke-width="1" fill="none" fill-rule="evenodd">
        <path d="M16,32 C7.163444,32 0,24.836556 0,16 C0,7.163444 7.163444,0 16,0 C24.836556,0 32,7.163444 32,16 C32,24.836556 24.836556,32 16,32 Z M14.3949105,23.5817565 C14.816304,25.3946838 15.3888909,26.5092108 16.0196704,26.5092108 C17.0152614,26.5092108 17.8660681,23.7326514 18.2061308,19.8158722 C21.7665803,21.4854598 24.5962201,22.1402198 25.095438,21.277294 C25.5949091,20.4156844 23.6187326,18.2872655 20.4007867,16.0291416 C23.6303567,13.7842187 25.6140641,11.6636565 25.118647,10.7996184 L25.1181266,10.7997225 C24.7982216,10.242187 23.5054294,10.3126366 21.6697976,10.8774476 C21.5449102,10.6608677 21.316169,10.5158023 21.0546748,10.5158023 C20.6593864,10.5158023 20.3389419,10.8472902 20.3389419,11.2562012 C20.3389419,11.2831965 20.3403385,11.3098544 20.343061,11.3361018 C19.6734141,11.5903674 18.9566859,11.8936916 18.2076573,12.2414816 C17.8686041,8.31538619 17.0166868,5.5305464 16.0196704,5.5305464 C15.0241208,5.5305464 14.173528,8.30669053 13.8335224,12.2231743 C10.27414,10.5544383 7.44299279,9.90006293 6.94390286,10.7630876 C6.63154533,11.3032152 7.28845297,12.3385067 8.61266598,13.5909722 C8.59832396,13.6494199 8.59070252,13.7106409 8.59070252,13.7737034 C8.59070252,14.1826144 8.91114704,14.5141023 9.30643539,14.5141023 C9.40702091,14.5141023 9.50276027,14.4926383 9.58960681,14.4538964 C10.1932463,14.9558868 10.8817415,15.4798554 11.6390443,16.011028 C8.40984354,18.2557982 6.42634785,20.3761535 6.92173461,21.2401388 C7.41772825,22.1051825 10.2570561,21.4582563 13.8319761,19.7985425 C13.9079056,20.677966 14.0095606,21.5001251 14.132813,22.2465476 C13.9457373,22.3801089 13.8231396,22.6034139 13.8231396,22.85634 C13.8231396,23.2142407 14.068622,23.51283 14.3949105,23.5817565 Z M14.8585051,23.5189885 C15.0933462,23.3975337 15.2546054,23.1464179 15.2546054,22.85634 C15.2546054,22.4621074 14.9567537,22.1398393 14.5811403,22.1172107 C14.4573071,21.317152 14.3694299,20.4457667 14.3076597,19.5737845 C14.8625732,19.3070763 15.4329692,19.017296 16.0131351,18.7062174 C16.6046623,19.0267736 17.1861048,19.3250094 17.7513686,19.5990093 C17.5886098,21.2777379 17.3737034,22.5109107 17.3737034,22.5109107 C16.8770512,25.32451 16.1816132,25.9168083 16.1816132,25.9168083 L16.1816132,25.9171206 C16.0335126,26.1148656 15.885412,25.9665568 15.885412,25.9665568 C15.2890546,25.27549 14.9909801,23.9920208 14.9909801,23.9920208 C14.944279,23.8417313 14.9001668,23.6837231 14.8585051,23.5189885 Z M9.94213578,14.1142459 C9.99327413,14.0122989 10.0221683,13.8964917 10.0221683,13.7737034 C10.0221683,13.3647923 9.70172374,13.0333044 9.30643539,13.0333044 C9.14663572,13.0333044 8.99906754,13.0874785 8.87995701,13.1790413 C7.49420391,11.8487167 7.3754033,11.1975022 7.3754033,11.1975022 L7.37436253,11.1955247 C7.27809193,10.9680139 7.48093669,10.9131657 7.48093669,10.9131657 C8.37776236,10.7439376 9.63760624,11.1298526 9.63760624,11.1298526 C10.8225816,11.3997376 12.3283936,12.0339061 13.7915241,12.7481907 C13.7462367,13.3660108 13.7134278,14.0091363 13.6944307,14.6716025 C13.1227505,15.0216325 12.5753158,15.3740772 12.0567717,15.7246728 C11.0717709,15.0187118 10.2992171,14.4043479 9.94213578,14.1142459 Z M20.5588078,11.790119 C20.6874419,11.9179938 20.8621844,11.9966002 21.0546748,11.9966002 C21.4108406,11.9966002 21.7062443,11.7274813 21.761229,11.3750921 C23.5907204,10.8010918 24.3334515,10.868138 24.5928534,10.9393929 C24.680091,10.9634808 24.7371067,11.0471331 24.7276323,11.1371379 C24.6783001,11.6741717 23.7284996,12.6436427 23.7284996,12.6436427 C22.4606466,13.9094052 21.1234702,14.9640993 20.0077814,15.7569535 C19.4819864,15.3974899 18.9262062,15.035911 18.3453619,14.6767518 C18.3263203,14.0103896 18.2932995,13.3635726 18.2476574,12.7423696 C19.1301411,12.3495459 19.8955573,12.0373713 20.5588078,11.790119 Z M19.9848822,16.314251 C23.965994,19.2015327 24.6097548,20.5054279 24.710876,20.8922116 C24.7335389,20.9793624 24.6901757,21.0701746 24.6081526,21.1073374 C24.1175369,21.3319341 22.8034692,20.9973287 22.8034692,20.9973287 C21.0726446,20.5332106 19.4899247,19.9040523 18.244822,19.3356748 C18.2918008,18.7045194 18.3257361,18.0467047 18.3451968,17.3686291 C18.9176189,17.0181658 19.4657347,16.6652799 19.9848822,16.314251 Z M13.6821748,16.8322162 C13.2673746,16.5650336 12.8669604,16.2944963 12.4905198,16.0315914 C12.8906972,15.7688673 13.2912194,15.5143876 13.6811034,15.2725708 C13.6772211,15.5193796 13.6752472,15.7685454 13.6752472,16.0197745 C13.6752472,16.2931573 13.6775846,16.5640973 13.6821748,16.8322162 Z M13.69428,17.3626864 C13.7133177,18.0292399 13.7463372,18.6762382 13.7919811,19.2976074 C12.2473355,19.9956416 11.0629315,20.4253252 11.0629315,20.4253252 C8.37516045,21.393235 7.51528187,21.0852732 7.51528187,21.0852732 L7.51549003,21.0852732 C7.26872507,21.0540503 7.32450997,20.8513096 7.32450997,20.8513096 C7.62705984,19.9903903 8.59059844,19.0930442 8.59059844,19.0930442 C9.41782556,18.203053 10.7205966,17.2180326 12.071424,16.3099608 C12.5854924,16.6603501 13.1279612,17.012655 13.69428,17.3626864 Z M18.3580436,15.2412281 C18.8705281,15.5469769 19.175889,15.738248 19.175889,15.738248 C19.3221466,15.8405789 19.4645558,15.9411302 19.6032175,16.0399261 C19.1264333,16.3681313 18.7021326,16.6417004 18.3570633,16.8559634 C18.3619276,16.5800978 18.3644059,16.3012306 18.3644059,16.0197745 C18.3644059,15.7579067 18.3622603,15.4982804 18.3580436,15.2412281 Z M17.7946625,19.1260884 C17.2737288,18.8787789 16.8259253,18.6494794 16.4685113,18.458756 C16.7074459,18.3271871 16.9477626,18.1921409 17.189072,18.0537381 C17.4277569,17.9168405 17.6631047,17.7791218 17.8948251,17.6408482 C17.8705087,18.1527804 17.8353743,18.6530125 17.7946625,19.1260884 Z M14.2098062,17.6767012 C14.4184783,17.8019649 14.6300589,17.9267721 14.8443365,18.050928 C15.0809918,18.1880499 15.3167031,18.3219165 15.5511005,18.4524115 C15.1168995,18.6748813 14.6869721,18.8835623 14.2751251,19.0757516 C14.2466855,18.6017576 14.225444,18.13159 14.2098062,17.6767012 Z M14.1940565,17.1553632 C14.1726104,16.33477 14.1684008,15.5823457 14.171176,14.9717115 C14.8527904,14.5574452 15.4848778,14.190237 16.0034846,13.8958155 C16.7349552,14.2953392 17.3946985,14.6737107 17.9206677,14.9824271 C17.9249328,15.3156521 17.9201041,15.5014744 17.9201041,15.5014744 C17.9361242,16.0379198 17.9325725,16.5847507 17.9153766,17.124485 C17.5979612,17.3131267 17.4155421,17.4115872 17.4155421,17.4115872 C16.9609465,17.6908207 16.4878291,17.9583457 16.0139755,18.2106803 C15.6911061,18.0302471 15.5141717,17.9215611 15.5141717,17.9215611 C15.0700034,17.6819892 14.6265938,17.4227265 14.1940565,17.1553632 Z M16.5210803,13.6047756 C17.0416116,13.3149605 17.359549,13.1468517 17.359549,13.1468517 C17.5164366,13.0738604 17.670065,13.0031613 17.8204993,12.9346858 C17.8671189,13.5063041 17.8928829,14.0060494 17.9068396,14.4089525 C17.6739367,14.2684805 17.4373568,14.128556 17.1973981,13.9894536 C16.9710003,13.8582124 16.7454525,13.7299524 16.5210803,13.6047756 Z M14.2373199,12.9688583 C14.6674426,13.1846142 15.0905547,13.4048665 15.4971804,13.6222076 C15.282875,13.7407261 15.0674914,13.8620256 14.8513096,13.9860191 C14.6231681,14.1168722 14.3980752,14.2484755 14.1762842,14.3805966 C14.1839078,13.7865715 14.1962533,13.4282741 14.1962533,13.4282741 C14.2096486,13.2718935 14.2233442,13.1187775 14.2373199,12.9688583 Z M14.2890605,12.4403752 C14.7917674,7.54763942 15.5966585,6.33715119 15.8814571,6.05509107 C15.9455457,5.99203621 16.0456697,5.98413515 16.1188552,6.03635733 C16.5592021,6.3485863 16.9284649,7.65297485 16.9284649,7.65297485 C17.3961693,9.38911062 17.6450919,11.0798471 17.7768679,12.4447199 C17.2081827,12.7172131 16.6230203,13.0140639 16.0275541,13.3333541 C15.4360095,13.0127225 14.8544714,12.7144229 14.2890605,12.4403752 Z M15.9950043,17.2290373 C16.6765419,17.2290373 17.2290373,16.6765419 17.2290373,15.9950043 C17.2290373,15.3134668 16.6765419,14.7609714 15.9950043,14.7609714 C15.3134668,14.7609714 14.7609714,15.3134668 14.7609714,15.9950043 C14.7609714,16.6765419 15.3134668,17.2290373 15.9950043,17.2290373 Z" id="Combined-Shape" fill="#FFFFFF" fill-rule="nonzero"></path>
    </g>
</svg>

<svg width="32" height="32" viewBox="0 0 32 32" xmlns="http://www.w3.org/2000/svg"><path d="M16 32C7.163 32 0 24.837 0 16S7.163 0 16 0s16 7.163 16 16-7.163 16-16 16zm-1.605-8.418c.421 1.813.994 2.927 1.625 2.927.995 0 1.846-2.776 2.186-6.693 3.56 1.67 6.39 2.324 6.89 1.461.499-.861-1.477-2.99-4.695-5.248 3.23-2.245 5.213-4.365 4.718-5.23-.32-.557-1.614-.486-3.45.078a.711.711 0 0 0-.614-.361.728.728 0 0 0-.712.82c-.67.254-1.386.558-2.135.905-.34-3.926-1.191-6.71-2.188-6.71-.996 0-1.846 2.776-2.186 6.692-3.56-1.669-6.391-2.323-6.89-1.46-.312.54.344 1.576 1.669 2.828a.766.766 0 0 0-.022.183c0 .409.32.74.715.74a.692.692 0 0 0 .284-.06 31.631 31.631 0 0 0 2.049 1.557c-3.23 2.245-5.213 4.365-4.717 5.23.496.864 3.335.217 6.91-1.442.076.879.178 1.701.3 2.448a.747.747 0 0 0-.309.61c0 .357.246.656.572.725zm.464-.063a.743.743 0 0 0 .396-.663.73.73 0 0 0-.674-.739c-.124-.8-.212-1.671-.273-2.543a43.428 43.428 0 0 0 1.705-.868c.592.32 1.173.619 1.738.893a42.963 42.963 0 0 1-.377 2.912c-.497 2.814-1.192 3.406-1.192 3.406-.148.198-.297.05-.297.05-.596-.692-.894-1.975-.894-1.975a9.193 9.193 0 0 1-.132-.473zm-4.917-9.405a.758.758 0 0 0 .08-.34c0-.41-.32-.74-.716-.74a.697.697 0 0 0-.426.145c-1.386-1.33-1.505-1.981-1.505-1.981v-.002c-.097-.228.106-.283.106-.283.897-.17 2.157.217 2.157.217 1.185.27 2.69.904 4.154 1.618a43.36 43.36 0 0 0-.098 1.924c-.571.35-1.119.702-1.637 1.053a45.36 45.36 0 0 1-2.115-1.61zM20.56 11.79a.701.701 0 0 0 .496.207c.356 0 .651-.27.706-.622 1.83-.574 2.572-.507 2.832-.436a.185.185 0 0 1 .135.198c-.05.537-1 1.507-1 1.507a29.526 29.526 0 0 1-3.72 3.113 43.305 43.305 0 0 0-1.663-1.08 43.344 43.344 0 0 0-.097-1.935 40.542 40.542 0 0 1 2.31-.952zm-.574 4.524c3.981 2.888 4.625 4.191 4.726 4.578a.185.185 0 0 1-.103.215c-.49.225-1.805-.11-1.805-.11a29.616 29.616 0 0 1-4.558-1.661c.047-.631.08-1.29.1-1.967.573-.35 1.12-.704 1.64-1.055zm-6.303.518a38.497 38.497 0 0 1-1.191-.8c.4-.263.8-.518 1.19-.76a47.517 47.517 0 0 0 .001 1.56zm.012.53c.02.667.052 1.314.098 1.936a42.6 42.6 0 0 1-2.73 1.127c-2.687.968-3.547.66-3.547.66-.246-.03-.19-.234-.19-.234.302-.86 1.266-1.758 1.266-1.758.827-.89 2.13-1.875 3.48-2.783.514.35 1.057.703 1.623 1.053zm4.664-2.12c.513.305.818.496.818.496.146.103.289.203.427.302-.477.328-.9.602-1.246.816a47.441 47.441 0 0 0 .001-1.615zm-.563 3.884c-.521-.247-.97-.477-1.326-.667a47.51 47.51 0 0 0 1.426-.818c-.024.512-.06 1.012-.1 1.485zm-3.585-1.45a47.58 47.58 0 0 0 1.341.776c-.434.223-.864.432-1.276.624a53.88 53.88 0 0 1-.065-1.4zm-.016-.52a71.817 71.817 0 0 1-.023-2.184 71.966 71.966 0 0 1 1.832-1.076c.732.4 1.392.778 1.918 1.086.004.334 0 .52 0 .52a26.59 26.59 0 0 1-.006 1.622c-.317.19-.5.288-.5.288a26.69 26.69 0 0 1-1.401.799c-.323-.18-.5-.29-.5-.29a26 26 0 0 1-1.32-.766zm2.327-3.551c.52-.29.839-.458.839-.458.156-.073.31-.144.46-.212.047.571.073 1.071.087 1.474a47.467 47.467 0 0 0-1.386-.804zm-2.284-.636c.43.216.854.436 1.26.653a47.584 47.584 0 0 0-1.32.759c.007-.594.02-.953.02-.953l.04-.46zm.052-.529c.503-4.892 1.308-6.103 1.592-6.385a.185.185 0 0 1 .238-.019c.44.313.81 1.617.81 1.617.467 1.736.716 3.427.848 4.792a44.56 44.56 0 0 0-1.75.888 43.16 43.16 0 0 0-1.738-.893zm1.706 4.789a1.234 1.234 0 1 0 0-2.468 1.234 1.234 0 0 0 0 2.468z" fill="#FFF"/></svg>
